Numix/24x24/status/shutter-panel.svg

<?xml version="1.0" encoding="UTF-8" standalone="no"?>
<svg
   xmlns:dc="http://purl.org/dc/elements/1.1/"
   xmlns:cc="http://creativecommons.org/ns#"
   xmlns:rdf="http://www.w3.org/1999/02/22-rdf-syntax-ns#"
   xmlns:svg="http://www.w3.org/2000/svg"
   xmlns="http://www.w3.org/2000/svg"
   xmlns:sodipodi="http://sodipodi.sourceforge.net/DTD/sodipodi-0.dtd"
   xmlns:inkscape="http://www.inkscape.org/namespaces/inkscape"
   width="24"
   height="24"
   viewBox="0 0 24 24"
   id="svg3057"
   version="1.1"
   inkscape:version="0.48.5 r10040"
   sodipodi:docname="shutter-panel.svg">
  <metadata
     id="metadata3107">
    <rdf:RDF>
      <cc:Work
         rdf:about="">
        <dc:format>image/svg+xml</dc:format>
        <dc:type
           rdf:resource="http://purl.org/dc/dcmitype/StillImage" />
      </cc:Work>
    </rdf:RDF>
  </metadata>
  <sodipodi:namedview
     pagecolor="#ffffff"
     bordercolor="#666666"
     borderopacity="1"
     objecttolerance="10"
     gridtolerance="10"
     guidetolerance="10"
     inkscape:pageopacity="0"
     inkscape:pageshadow="2"
     inkscape:window-width="1280"
     inkscape:window-height="998"
     id="namedview3105"
     showgrid="false"
     inkscape:zoom="19.666667"
     inkscape:cx="12.550191"
     inkscape:cy="5.8736298"
     inkscape:window-x="0"
     inkscape:window-y="0"
     inkscape:window-maximized="1"
     inkscape:current-layer="svg3057" />
  <defs
     id="defs3059">
    <filter
       id="0"
       filterUnits="objectBoundingBox"
       x="0"
       y="0"
       width="24"
       height="24">
      <feColorMatrix
         type="matrix"
         in="SourceGraphic"
         values="0 0 0 0 1 0 0 0 0 1 0 0 0 0 1 0 0 0 1 0"
         id="feColorMatrix3062" />
    </filter>
    <mask
       id="1">
      <g
         filter="url(#0)"
         id="g3065">
        <rect
           width="24"
           height="24"
           fill-opacity="0.302"
           id="rect3067" />
      </g>
    </mask>
    <clipPath
       id="2">
      <rect
         width="24"
         height="24"
         id="rect3070" />
    </clipPath>
    <g
       id="3"
       clip-path="url(#2)">
      <path
         d="M 15.734375 8.277344 C 13.839844 8.414062 10.511719 11.597656 10.980469 11.582031 C 14.851562 11.449219 17.269531 11.671875 20.289062 12.597656 C 20.738281 12.734375 19.808594 8.589844 15.734375 8.277344 Z "
         id="path3073" />
      <path
         d="M 9.976562 5.660156 C 8.898438 7.207031 8.761719 13.257812 9.042969 12.886719 C 11.332031 9.8125 16.820312 6.019531 20.09375 4.492188 C 24.140625 2.601562 12.371094 2.832031 9.976562 5.660156 Z "
         id="path3075" />
      <path
         d="M 5.101562 12.242188 C 5.71875 14.019531 9.691406 16.378906 9.554688 15.933594 C 8.425781 12.269531 8.015625 9.902344 8.144531 6.777344 C 8.164062 6.3125 4.351562 8.269531 5.101562 12.242188 Z "
         id="path3077" />
      <path
         d="M 5.617188 18.070312 C 7.375 18.777344 11.789062 17.378906 11.359375 17.191406 C 7.828125 15.613281 5.761719 14.355469 3.46875 12.203125 C 3.128906 11.882812 2.105469 16.007812 5.617188 18.070312 Z "
         id="path3079" />
      <path
         d="M 10.707031 21.402344 C 12.386719 20.53125 14.148438 16.292969 13.726562 16.496094 C 10.234375 18.148438 7.925781 18.902344 4.785156 19.246094 C 4.320312 19.296875 6.847656 22.730469 10.707031 21.402344 Z "
         id="path3081" />
      <path
         d="M 16.632812 19.605469 C 17.042969 17.769531 14.910156 13.707031 14.792969 14.152344 C 13.8125 17.859375 12.910156 20.089844 11.148438 22.6875 C 10.886719 23.070312 15.167969 23.375 16.632812 19.605469 Z "
         id="path3083" />
      <path
         d="M 18.96875 13.835938 C 17.824219 12.335938 13.3125 11.296875 13.582031 11.679688 C 15.796875 14.820312 16.921875 16.949219 17.773438 19.964844 C 17.898438 20.410156 20.914062 17.386719 18.96875 13.835938 Z "
         id="path3085" />
    </g>
  </defs>
  <path
     style="fill:#ececec;fill-opacity:1"
     inkscape:connector-curvature="0"
     id="path3091"
     d="m 15.734375,7.1875 c -1.894531,0.136719 -5.222656,3.320312 -4.753906,3.304688 3.871093,-0.132813 6.289062,0.08594 9.308593,1.015624 C 20.738281,11.644531 19.808594,7.5 15.734375,7.1875 z" />
  <path
     style="fill:#ececec;fill-opacity:1"
     inkscape:connector-curvature="0"
     id="path3093"
     d="M 9.976562,4.570312 C 8.898438,6.117188 8.761719,12.167969 9.042969,11.796875 11.332031,8.722656 16.820312,4.929688 20.09375,3.398438 24.140625,1.511719 12.371094,1.742188 9.976562,4.570312 z" />
  <path
     style="fill:#ececec;fill-opacity:1"
     inkscape:connector-curvature="0"
     id="path3095"
     d="M 5.101562,11.152344 C 5.71875,12.925781 9.691406,15.285156 9.554688,14.84375 8.425781,11.179688 8.015625,8.8125 8.144531,5.683594 8.164062,5.222656 4.351562,7.179688 5.101562,11.152344 z" />
  <path
     style="fill:#ececec;fill-opacity:1"
     inkscape:connector-curvature="0"
     id="path3097"
     d="M 5.617188,16.980469 C 7.375,17.6875 11.789062,16.289062 11.359375,16.097656 7.828125,14.523438 5.761719,13.265625 3.46875,11.109375 3.128906,10.792969 2.105469,14.914062 5.617188,16.980469 z" />
  <path
     style="fill:#ececec;fill-opacity:1"
     inkscape:connector-curvature="0"
     id="path3099"
     d="m 10.707031,20.3125 c 1.679688,-0.871094 3.441407,-5.109375 3.019531,-4.910156 -3.492187,1.65625 -5.800781,2.410156 -8.941406,2.753906 -0.464844,0.05078 2.0625,3.480469 5.921875,2.15625 z" />
  <path
     style="fill:#ececec;fill-opacity:1"
     inkscape:connector-curvature="0"
     id="path3101"
     d="M 16.632812,18.511719 C 17.042969,16.679688 14.910156,12.613281 14.792969,13.0625 13.8125,16.769531 12.910156,19 11.148438,21.597656 c -0.261719,0.382813 4.019531,0.6875 5.484374,-3.085937 z" />
  <path
     style="fill:#ececec;fill-opacity:1"
     inkscape:connector-curvature="0"
     id="path3103"
     d="m 18.96875,12.742188 c -1.144531,-1.5 -5.65625,-2.535157 -5.386719,-2.15625 2.214844,3.144531 3.339844,5.273437 4.191407,8.285156 0.125,0.445312 3.140624,-2.574219 1.195312,-6.128906 z" />
</svg>

<svg xmlns="http://www.w3.org/2000/svg" xmlns:xlink="http://www.w3.org/1999/xlink" width="24" height="24" viewBox="0 0 24 24">
 <defs>
  <filter id="0" filterUnits="objectBoundingBox" x="0" y="0" width="24" height="24">
   <feColorMatrix type="matrix" in="SourceGraphic" values="0 0 0 0 1 0 0 0 0 1 0 0 0 0 1 0 0 0 1 0"/>
  </filter>
  <mask id="1">
   <g filter="url(#0)">
    <rect width="24" height="24" fill-opacity="0.302"/>
   </g>
  </mask>
  <clipPath id="2">
   <rect width="24" height="24"/>
  </clipPath>
  <g id="3" clip-path="url(#2)">
   <path d="M 15.734375 8.277344 C 13.839844 8.414062 10.511719 11.597656 10.980469 11.582031 C 14.851562 11.449219 17.269531 11.671875 20.289062 12.597656 C 20.738281 12.734375 19.808594 8.589844 15.734375 8.277344 Z "/>
   <path d="M 9.976562 5.660156 C 8.898438 7.207031 8.761719 13.257812 9.042969 12.886719 C 11.332031 9.8125 16.820312 6.019531 20.09375 4.492188 C 24.140625 2.601562 12.371094 2.832031 9.976562 5.660156 Z "/>
   <path d="M 5.101562 12.242188 C 5.71875 14.019531 9.691406 16.378906 9.554688 15.933594 C 8.425781 12.269531 8.015625 9.902344 8.144531 6.777344 C 8.164062 6.3125 4.351562 8.269531 5.101562 12.242188 Z "/>
   <path d="M 5.617188 18.070312 C 7.375 18.777344 11.789062 17.378906 11.359375 17.191406 C 7.828125 15.613281 5.761719 14.355469 3.46875 12.203125 C 3.128906 11.882812 2.105469 16.007812 5.617188 18.070312 Z "/>
   <path d="M 10.707031 21.402344 C 12.386719 20.53125 14.148438 16.292969 13.726562 16.496094 C 10.234375 18.148438 7.925781 18.902344 4.785156 19.246094 C 4.320312 19.296875 6.847656 22.730469 10.707031 21.402344 Z "/>
   <path d="M 16.632812 19.605469 C 17.042969 17.769531 14.910156 13.707031 14.792969 14.152344 C 13.8125 17.859375 12.910156 20.089844 11.148438 22.6875 C 10.886719 23.070312 15.167969 23.375 16.632812 19.605469 Z "/>
   <path d="M 18.96875 13.835938 C 17.824219 12.335938 13.3125 11.296875 13.582031 11.679688 C 15.796875 14.820312 16.921875 16.949219 17.773438 19.964844 C 17.898438 20.410156 20.914062 17.386719 18.96875 13.835938 Z "/>
  </g>
 </defs>
 <g>
  <use xlink:href="#3" mask="url(#1)"/>
  <path d="M 15.734375 7.1875 C 13.839844 7.324219 10.511719 10.507812 10.980469 10.492188 C 14.851562 10.359375 17.269531 10.578125 20.289062 11.507812 C 20.738281 11.644531 19.808594 7.5 15.734375 7.1875 Z " fill="#dcdcdc"/>
  <path d="M 9.976562 4.570312 C 8.898438 6.117188 8.761719 12.167969 9.042969 11.796875 C 11.332031 8.722656 16.820312 4.929688 20.09375 3.398438 C 24.140625 1.511719 12.371094 1.742188 9.976562 4.570312 Z " fill="#dcdcdc"/>
  <path d="M 5.101562 11.152344 C 5.71875 12.925781 9.691406 15.285156 9.554688 14.84375 C 8.425781 11.179688 8.015625 8.8125 8.144531 5.683594 C 8.164062 5.222656 4.351562 7.179688 5.101562 11.152344 Z " fill="#dcdcdc"/>
  <path d="M 5.617188 16.980469 C 7.375 17.6875 11.789062 16.289062 11.359375 16.097656 C 7.828125 14.523438 5.761719 13.265625 3.46875 11.109375 C 3.128906 10.792969 2.105469 14.914062 5.617188 16.980469 Z " fill="#dcdcdc"/>
  <path d="M 10.707031 20.3125 C 12.386719 19.441406 14.148438 15.203125 13.726562 15.402344 C 10.234375 17.058594 7.925781 17.8125 4.785156 18.15625 C 4.320312 18.207031 6.847656 21.636719 10.707031 20.3125 Z " fill="#dcdcdc"/>
  <path d="M 16.632812 18.511719 C 17.042969 16.679688 14.910156 12.613281 14.792969 13.0625 C 13.8125 16.769531 12.910156 19 11.148438 21.597656 C 10.886719 21.980469 15.167969 22.285156 16.632812 18.511719 Z " fill="#dcdcdc"/>
  <path d="M 18.96875 12.742188 C 17.824219 11.242188 13.3125 10.207031 13.582031 10.585938 C 15.796875 13.730469 16.921875 15.859375 17.773438 18.871094 C 17.898438 19.316406 20.914062 16.296875 18.96875 12.742188 Z " fill="#dcdcdc"/>
 </g>
</svg>
